sourses/img/Vector5.svg

<svg width="98" height="78" viewBox="0 0 98 78" fill="none" xmlns="http://www.w3.org/2000/svg">
<path d="M91.5259 35.3891H90.0679L82.8692 19.2407C81.3627 15.8619 77.9988 13.6704 74.2993 13.6585L66.5384 13.6331V7.60225C66.5384 3.48702 63.1978 0.139648 59.0922 0.139648H7.4469C3.34064 0.139648 0 3.48702 0 7.60225V67.9483C0 69.0056 0.856843 69.8624 1.91406 69.8624H12.8115C14.1454 74.4764 18.4072 77.8604 23.445 77.8604C28.4829 77.8604 32.7454 74.4764 34.0786 69.8624H66.9646C68.2977 74.4764 72.5602 77.8604 77.5981 77.8604C82.636 77.8604 86.8978 74.4764 88.2316 69.8624H96.086C97.1432 69.8624 98.0001 69.0056 98.0001 67.9483V41.8647C98.0001 38.2946 95.0953 35.3891 91.5259 35.3891ZM94.1719 41.8647V55.7297H66.5384V39.2172H91.5259C92.9846 39.2172 94.1719 40.4053 94.1719 41.8647ZM66.5578 66.0343H34.4853C34.3171 63.5677 33.3361 61.3194 31.8093 59.5571H69.2338C67.7063 61.3194 66.7261 63.5677 66.5578 66.0343ZM3.82813 55.729V48.3442H62.7103V55.729H3.82813ZM74.2866 17.4866C76.4826 17.4933 78.4789 18.7943 79.3731 20.7996L85.8764 35.3891H66.5384V17.4612L74.2866 17.4866ZM3.82813 7.60225C3.82813 5.59772 5.45134 3.96778 7.4469 3.96778H59.0915C61.087 3.96778 62.7103 5.59847 62.7103 7.60225V44.516H3.82813V7.60225ZM3.82813 59.5571H15.0807C13.554 61.3194 12.573 63.5677 12.4048 66.0343H3.82813V59.5571ZM23.445 74.0322C19.4539 74.0322 16.2075 70.7858 16.2075 66.7947C16.2075 62.8043 19.4539 59.5571 23.445 59.5571C27.4362 59.5571 30.6826 62.8043 30.6826 66.7947C30.6826 70.7858 27.4362 74.0322 23.445 74.0322ZM77.5981 74.0322C73.607 74.0322 70.3598 70.7858 70.3598 66.7947C70.3598 62.8043 73.607 59.5571 77.5981 59.5571C81.5892 59.5571 84.8356 62.8043 84.8356 66.7947C84.8356 70.7858 81.5885 74.0322 77.5981 74.0322ZM94.1719 66.0343H88.6376C88.4694 63.5677 87.4892 61.3194 85.9624 59.5571H94.1719V66.0343Z" fill="#D7A950"/>
</svg>

<svg width="98" height="78" fill="none" xmlns="http://www.w3.org/2000/svg"><path d="M91.526 35.39h-1.458l-7.199-16.15a9.431 9.431 0 00-8.57-5.581l-7.76-.026v-6.03c0-4.116-3.341-7.463-7.447-7.463H7.447C3.34.14 0 3.487 0 7.602v60.346c0 1.058.857 1.914 1.914 1.914h10.897c1.334 4.614 5.596 7.998 10.634 7.998s9.3-3.384 10.634-7.998h32.886c1.333 4.614 5.595 7.998 10.633 7.998 5.038 0 9.3-3.384 10.634-7.998h7.854A1.914 1.914 0 0098 67.948V41.865a6.483 6.483 0 00-6.474-6.476zm2.646 6.475V55.73H66.538V39.217h24.988a2.65 2.65 0 012.646 2.648zm-27.614 24.17H34.485a11.022 11.022 0 00-2.676-6.478h37.425a11.018 11.018 0 00-2.676 6.477zM3.828 55.728v-7.385H62.71v7.385H3.828zm70.459-38.242a5.597 5.597 0 015.086 3.313l6.503 14.59H66.538V17.46l7.749.026zM3.828 7.602a3.63 3.63 0 013.619-3.634h51.645c1.995 0 3.618 1.63 3.618 3.634v36.914H3.828V7.602zm0 51.955h11.253a11.023 11.023 0 00-2.676 6.477H3.828v-6.477zm19.617 14.475a7.245 7.245 0 01-7.238-7.237c0-3.99 3.247-7.238 7.238-7.238 3.991 0 7.238 3.247 7.238 7.238 0 3.99-3.247 7.237-7.238 7.237zm54.153 0c-3.991 0-7.238-3.246-7.238-7.237 0-3.99 3.247-7.238 7.238-7.238 3.991 0 7.238 3.247 7.238 7.238 0 3.99-3.248 7.237-7.238 7.237zm16.574-7.998h-5.534a11.021 11.021 0 00-2.676-6.477h8.21v6.477z" fill="#D7A950"/></svg>
